svgs/sharp-light/block-brick.svg

<svg xmlns="http://www.w3.org/2000/svg" viewBox="0 0 448 512"><!--! Font Awesome Pro 6.6.0 by @fontawesome - https://fontawesome.com License - https://fontawesome.com/license (Commercial License) Copyright 2024 Fonticons, Inc. --><path d="M136 64l0 64 72 0 32 0 72 0 0-64L136 64zm-32 64l0-64L32 64l0 64 72 0zM32 160l0 80 72 0 32 0 72 0 0-80L32 160zm0 192l72 0 0-80-72 0 0 80zm0 32l0 64 176 0 0-64-72 0-32 0-72 0zm104-32l176 0 0-80-176 0 0 80zm208 0l72 0 0-80-72 0 0 80zm72 32l-72 0-32 0-72 0 0 64 176 0 0-64zm0-224l-176 0 0 80 72 0 32 0 72 0 0-80zm0-32l0-64-72 0 0 64 72 0zM0 32l32 0 384 0 32 0 0 32 0 384 0 32-32 0L32 480 0 480l0-32L0 64 0 32z"/></svg>

<svg xmlns="http://www.w3.org/2000/svg" viewBox="0 0 448 512"><!--! Font Awesome Pro 6.4.2 by @fontawesome - https://fontawesome.com License - https://fontawesome.com/license (Commercial License) Copyright 2023 Fonticons, Inc. --><path d="M136 64v64h72 32 72V64H136zm-32 64V64H32v64h72zM32 160v80h72 32 72V160H32zm0 192h72V272H32v80zm0 32v64H208V384H136 104 32zm104-32H312V272H136v80zm208 0h72V272H344v80zm72 32H344 312 240v64H416V384zm0-224H240v80h72 32 72V160zm0-32V64H344v64h72zM0 32H32 416h32V64 448v32H416 32 0V448 64 32z"/></svg>
